X: 35
T:Maguire's
T:Molloy's
M:4/4
L:1/8
S:Dan Cummins and Bev Buchannan
R:reel
B:CaC
K:D
|:AF~F2 BFAF|DEFA BABd|eB~B2 egfe|dfed BcdB|
AF~F2 BFAF|DEFA BABd|egfg efdB|1AFGE D2 dB:|2AFGE D2 FA ||
|:dcde fefg|afbf afdf|eB~B2 gB~B2|fedf efdB|
AF~F2 ABdf|afbf afdf|~g2 fg efdB|1AFGE D2 FA:|2AFGED2dB||

